svg/question_triangle_negative.svg

<?xml version="1.0" encoding="UTF-8" standalone="no"?>
<!-- Created with Inkscape (http://www.inkscape.org/) -->
<svg id="svg8" xmlns:rdf="http://www.w3.org/1999/02/22-rdf-syntax-ns#" xmlns="http://www.w3.org/2000/svg" xmlns:osb="http://www.openswatchbook.org/uri/2009/osb" height="48" width="48" version="1.1" xmlns:cc="http://creativecommons.org/ns#" viewBox="0 0 12.7 12.7" xmlns:dc="http://purl.org/dc/elements/1.1/">
 <title id="title4753">UIO-icon</title>
 <metadata id="metadata5">
  <rdf:RDF>
   <cc:Work rdf:about="">
    <dc:format>image/svg+xml</dc:format>
    <dc:type rdf:resource="http://purl.org/dc/dcmitype/StillImage"/>
    <dc:title>UIO-icon</dc:title>
    <dc:creator>
     <cc:Agent>
      <dc:title>Joaquín Urbano</dc:title>
     </cc:Agent>
    </dc:creator>
    <dc:rights>
     <cc:Agent>
      <dc:title>GPL</dc:title>
     </cc:Agent>
    </dc:rights>
   </cc:Work>
  </rdf:RDF>
 </metadata>
 <g id="layer1" fill="#333" transform="translate(0,-284.3)">
  <path id="rect883" d="m0 0v48h48v-48zm24 4 20 40h-40zm0.083984 14.281c-1.869 0-3.3879 0.51407-4.5586 1.541-1.1604 1.0167-1.7509 2.3559-1.7715 4.0195h2.8496c1e-8 -0.93452 0.31837-1.6779 0.95508-2.2324 0.6367-0.55455 1.4779-0.83203 2.5254-0.83203 1.0783 0 1.9 0.30766 2.4648 0.92383 0.56482 0.6059 0.84766 1.4491 0.84766 2.5273-2e-8 1.1194-0.43034 2.167-1.293 3.1426l-2.0195 2.0781c-0.79075 0.86263-1.3136 1.6488-1.5703 2.3574-0.25674 0.70859-0.39548 1.6744-0.41602 2.8965h2.8496c0-1.561 0.37533-2.758 1.125-3.5898l1.677-1.664c1.6636-1.7458 2.4961-3.5173 2.4961-5.3145 0-1.8177-0.54425-3.244-1.6328-4.2812-1.078-1.047-2.588-1.572-4.529-1.572zm-0.42969 19.672c-0.55455 0-0.97613 0.15821-1.2637 0.47656-0.27727 0.30808-0.41602 0.69413-0.41602 1.1562-1e-8 0.46212 0.13874 0.84621 0.41602 1.1543 0.28754 0.29781 0.70912 0.44727 1.2637 0.44727 0.55455 0 0.97417-0.14945 1.2617-0.44727 0.28754-0.30808 0.43164-0.69217 0.43164-1.1543 0-0.46212-0.1441-0.84817-0.43164-1.1562-0.288-0.319-0.707-0.477-1.262-0.477z" fill-rule="evenodd" transform="matrix(.26458 0 0 .26458 0 284.3)"/>
 </g>
</svg>

<svg width="48" height="48" viewBox="0 0 48 48" fill="none" xmlns="http://www.w3.org/2000/svg">
<path fill-rule="evenodd" clip-rule="evenodd" d="M0 0V47.9994H47.9994V0H0ZM23.9997 3.99995L43.9995 43.9995H3.99995L23.9997 3.99995ZM24.0837 18.2808C22.2147 18.2808 20.6958 18.7948 19.5251 19.8218C18.3648 20.8384 17.7743 22.1776 17.7537 23.8412H20.6032C20.6032 22.9067 20.9216 22.1633 21.5583 21.6088C22.195 21.0543 23.0362 20.7768 24.0837 20.7768C25.1619 20.7768 25.9836 21.0845 26.5484 21.7006C27.1132 22.3065 27.3961 23.1497 27.3961 24.2279C27.3961 25.3473 26.9657 26.3949 26.1031 27.3705L24.0836 29.4485C23.2929 30.3112 22.77 31.0973 22.5133 31.8059C22.2566 32.5145 22.1179 33.4803 22.0973 34.7024H24.9469C24.9469 33.1414 25.3222 31.9444 26.0719 31.1126L27.7489 29.4486C29.4124 27.7029 30.2449 25.9314 30.2449 24.1342C30.2449 22.3165 29.7007 20.8902 28.6121 19.8531C27.5342 18.8061 26.0242 18.2811 24.0832 18.2811L24.0837 18.2808ZM23.654 37.9525C23.0995 37.9525 22.6779 38.1107 22.3903 38.4291C22.113 38.7372 21.9743 39.1232 21.9743 39.5853C21.9743 40.0474 22.113 40.4315 22.3903 40.7395C22.6779 41.0374 23.0994 41.1868 23.654 41.1868C24.2085 41.1868 24.6282 41.0374 24.9157 40.7395C25.2032 40.4315 25.3473 40.0474 25.3473 39.5853C25.3473 39.1231 25.2032 38.7371 24.9157 38.4291C24.6277 38.1101 24.2087 37.9521 23.6537 37.9521L23.654 37.9525Z" fill="#333333"/>
</svg>
